dist/svg/u1F982.svg

<?xml version="1.0" encoding="UTF-8"?><svg id="Layer_1" xmlns="http://www.w3.org/2000/svg" viewBox="0 0 40 40"><g><path d="M17.70245,14.06355h3.83701c1.72538,0,3.12616,1.40079,3.12616,3.12616v3.45153c0,.26152-.21232,.47385-.47385,.47385H15.05014c-.26152,0-.47385-.21232-.47385-.47385v-3.45153c0-1.72538,1.40079-3.12616,3.12616-3.12616Z" style="fill:#b68c56;"/><path d="M15.01663,20.40254l1.52258,8.4571c.21287,1.18239,1.24192,2.04268,2.44337,2.04268h1.2768c1.20146,0,2.23051-.8603,2.44337-2.04269l1.52253-8.4571c.04704-.2613-.1538-.50151-.41931-.50151H15.43594c-.26552,.00001-.46635,.24022-.41931,.50153Z" style="fill:#b68c56;"/><path d="M25.8142,38c-4.0123,0-7.27719-3.26473-7.27719-7.27684h2.16812c0,2.81694,2.29199,5.10882,5.10906,5.10882,2.81814,0,5.11012-2.29188,5.11012-5.10882h2.16812c0,4.01211-3.26489,7.27684-7.27824,7.27684Z" style="fill:#b68c56;"/><path d="M16.01741,18.41454h-2.91871c-5.22657,0-9.47918-4.25241-9.47918-9.47873v-1.72764h2.16812v1.72764c0,4.03116,3.27971,7.31071,7.31106,7.31071h2.91871v2.16802Z" style="fill:#b68c56;"/><path d="M9.25402,7.74722l5.75574,.16443c-.03569,1.2493-.47722,2.45365-1.25748,3.43001-1.97195,2.46756-5.6252,2.87546-8.09288,.9036s-2.87559-5.62493-.90365-8.09249c1.97195-2.46756,5.6252-2.87546,8.09288-.9036l-3.59461,4.49805Z" style="fill:#b68c56;"/><path d="M26.97448,18.41454h-2.91765v-2.16802h2.91765c4.03241,0,7.31212-3.27955,7.31212-7.31071v-1.72764h2.16812v1.72764c0,5.22632-4.25261,9.47873-9.48024,9.47873Z" style="fill:#b68c56;"/><path d="M30.74598,7.74722l-5.75574,.16443c.03569,1.2493,.47722,2.45365,1.25748,3.43001,1.97195,2.46756,5.6252,2.87546,8.09288,.9036,2.46767-1.97185,2.87559-5.62493,.90365-8.09249-1.97195-2.46756-5.6252-2.87546-8.09288-.9036l3.59461,4.49805Z" style="fill:#b68c56;"/><circle cx="31.94292" cy="28.74729" r="2.69114" style="fill:#6e4944;"/><path d="M34.37245,27.59848c-.93935-2.10257-2.6626-2.67962-4.75923-2.44079l1.73587,3.88545,3.02335-1.44466Z" style="fill:#6e4944;"/></g><rect y="0" width="40" height="40" style="fill:none;"/></svg>

<svg id="Layer_1" data-name="Layer 1" xmlns="http://www.w3.org/2000/svg" viewBox="0 0 40 40"><defs><style>.cls-1{fill:#b68c56;}.cls-2{fill:#6e4944;}.cls-3{fill:none;}</style></defs><path class="cls-1" d="M17.7,14.064h3.837a3.126,3.126,0,0,1,3.126,3.126v3.452a.474.474,0,0,1-.474.474H15.05a.474.474,0,0,1-.474-.474V17.19A3.126,3.126,0,0,1,17.7,14.064Z"/><path class="cls-1" d="M15.017,20.4l1.522,8.457A2.483,2.483,0,0,0,18.983,30.9h1.276A2.483,2.483,0,0,0,22.7,28.86L24.225,20.4a.426.426,0,0,0-.419-.5h-8.37A.426.426,0,0,0,15.017,20.4Z"/><path class="cls-1" d="M25.814,38a7.286,7.286,0,0,1-7.277-7.277h2.168a5.11,5.11,0,0,0,10.219,0h2.168A7.286,7.286,0,0,1,25.814,38Z"/><path class="cls-1" d="M16.017,18.415H13.1A9.49,9.49,0,0,1,3.62,8.936V7.208H5.788V8.936A7.319,7.319,0,0,0,13.1,16.247h2.918Z"/><path class="cls-1" d="M9.254,7.747l5.756.165a5.758,5.758,0,1,1-2.161-4.663Z"/><path class="cls-1" d="M26.974,18.415H24.057V16.247h2.917a7.32,7.32,0,0,0,7.313-7.311V7.208h2.168V8.936A9.491,9.491,0,0,1,26.974,18.415Z"/><path class="cls-1" d="M30.746,7.747l-5.756.165a5.758,5.758,0,1,0,2.161-4.663Z"/><circle class="cls-2" cx="31.943" cy="28.747" r="2.691"/><path class="cls-2" d="M34.372,27.6c-.939-2.1-2.662-2.679-4.759-2.44l1.736,3.885Z"/><rect class="cls-3" width="40" height="40"/></svg>
